assets/chains/amplitude.svg

<svg viewBox="0 0 539 539" fill="none" xmlns="http://www.w3.org/2000/svg">
    <path d="M-.001 269.034C-.001 120.45 120.448 0 269.032 0s269.034 120.45 269.034 269.034-120.454 269.035-269.034 269.035C120.452 538.069-.001 417.62-.001 269.034Zm52.806 0c0 119.422 96.808 216.228 216.228 216.228s216.229-96.806 216.229-216.228c0-119.422-96.812-216.229-216.229-216.229-119.417 0-216.228 96.809-216.228 216.229Zm221.148 118.173c-8.145-16.316-62.625-118.052-62.625-118.052h219.363s-58.073 103.882-64.812 118.052c-6.739 14.17-17.63 39.75-44.18 39.75s-39.601-23.427-47.746-39.75Zm-143.32-56.562c-7.65-20.266-21.309-61.488-21.309-61.488l23.589-61.491c9.432-22.105 17.865-32.609 25.943-32.627 19.1-.041 23.509 12.361 31.159 32.627 7.65 20.266 21.309 61.491 21.309 61.491s-12.549 32.727-23.584 61.488c-9.432 22.105-17.866 32.611-25.944 32.633h-.082c-19.027-.001-23.437-12.393-31.08-32.635l-.001.002Zm226.181-61.488H211.329s58.074-103.885 64.812-118.055c6.738-14.17 17.631-39.748 44.181-39.748 26.55 0 39.6 23.428 47.746 39.748 8.146 16.32 62.625 118.055 62.625 118.055h-73.879Z" fill="#5DEFA7"/>
</svg>

<svg width="539" height="539" viewBox="0 0 539 539" fill="none" xmlns="http://www.w3.org/2000/svg">
<path d="M-0.000976562 269.034C-0.000976562 120.45 120.448 0.000396729 269.032 0.000396729C417.616 0.000396729 538.066 120.45 538.066 269.034C538.066 417.618 417.612 538.069 269.032 538.069C120.452 538.069 -0.000976562 417.62 -0.000976562 269.034ZM52.8047 269.034C52.8047 388.456 149.613 485.262 269.033 485.262C388.453 485.262 485.262 388.456 485.262 269.034C485.262 149.612 388.45 52.8051 269.033 52.8051C149.616 52.8051 52.8047 149.614 52.8047 269.034ZM273.953 387.207C265.808 370.891 211.328 269.155 211.328 269.155H430.691C430.691 269.155 372.618 373.037 365.879 387.207C359.14 401.377 348.249 426.957 321.699 426.957C295.149 426.957 282.098 403.53 273.953 387.207ZM130.633 330.645C122.983 310.379 109.324 269.157 109.324 269.157C109.324 269.157 121.878 236.433 132.913 207.666C142.345 185.561 150.778 175.057 158.856 175.039C177.956 174.998 182.365 187.4 190.015 207.666C197.665 227.932 211.324 269.157 211.324 269.157C211.324 269.157 198.775 301.884 187.74 330.645C178.308 352.75 169.874 363.256 161.796 363.278H161.714C142.687 363.277 138.277 350.885 130.634 330.643L130.633 330.645ZM356.814 269.157H211.329C211.329 269.157 269.403 165.272 276.141 151.102C282.879 136.932 293.772 111.354 320.322 111.354C346.872 111.354 359.922 134.782 368.068 151.102C376.214 167.422 430.693 269.157 430.693 269.157H356.814Z" fill="#5DEFA7"/>
</svg>
